src/assets/icons/biz-money,simple,briefcase.svg

<svg width="48" height="48" viewBox="0 0 48 48" fill="none" xmlns="http://www.w3.org/2000/svg">
<rect opacity="0.2" x="5" y="5" width="38" height="38" rx="4" fill="black"/>
<path opacity="0.6" d="M22 13H26C26.9711 13 27.5988 13.0021 28.0613 13.0643C28.495 13.1226 28.631 13.2168 28.7071 13.2929C28.7832 13.369 28.8774 13.505 28.9357 13.9387C28.9979 14.4012 29 15.0289 29 16V18H19V16C19 15.0289 19.0021 14.4012 19.0643 13.9387C19.1226 13.505 19.2168 13.369 19.2929 13.2929C19.369 13.2168 19.505 13.1226 19.9387 13.0643C20.4012 13.0021 21.0289 13 22 13Z" stroke="black" stroke-width="2"/>
<path opacity="0.6" d="M10.0048 22.3252C10 22.8382 10 23.3949 10 24.0002V27.0002C10 30.7715 10 32.6571 11.1716 33.8287C12.3431 35.0002 14.2288 35.0002 18 35.0002H30C33.7712 35.0002 35.6569 35.0002 36.8284 33.8287C38 32.6571 38 30.7715 38 27.0002V24.0002C38 23.3949 38 22.8382 37.9952 22.3252C32.1316 23.8919 15.8683 23.8919 10.0048 22.3252Z" fill="black"/>
<path fill-rule="evenodd" clip-rule="evenodd" d="M36.8285 17.1716C37.812 18.1551 37.9699 20.6418 37.9952 23.325C35.4176 24.0137 30.8302 24.3997 26 24.4828V23C26 22.4477 25.5523 22 25 22H23C22.4477 22 22 22.4477 22 23V24.4828C17.1698 24.3996 12.5825 24.0137 10.0049 23.325C10.0302 20.6418 10.1881 18.1551 11.1716 17.1716C12.3432 16 14.2288 16 18 16H30C33.7713 16 35.6569 16 36.8285 17.1716Z" fill="black"/>
<rect opacity="0.6" x="22" y="22" width="4" height="5" rx="1" fill="black"/>
<path opacity="0.6" fill-rule="evenodd" clip-rule="evenodd" d="M23 22C22.4477 22 22 22.4477 22 23V23.4828C23.3272 23.5057 24.6728 23.5057 26 23.4828V23C26 22.4477 25.5523 22 25 22H23Z" fill="black"/>
</svg>

<svg xmlns="http://www.w3.org/2000/svg" width="48" height="48" fill="none" viewBox="0 0 48 48">
  <rect width="38" height="38" x="5" y="5" fill="#000" opacity=".2" rx="4"/>
  <path stroke="#000" stroke-width="2" d="M22 13h4c.971 0 1.599.002 2.061.064.434.059.57.153.646.229.076.076.17.212.229.646.062.462.064 1.09.064 2.061v2H19v-2c0-.971.002-1.599.064-2.061.059-.434.153-.57.229-.646.076-.076.212-.17.646-.229C20.4 13.002 21.029 13 22 13z" opacity=".6"/>
  <path fill="#000" d="M10.005 22.325C10 22.838 10 23.395 10 24v3c0 3.771 0 5.657 1.172 6.829C12.343 35 14.229 35 18 35h12c3.771 0 5.657 0 6.828-1.171C38 32.657 38 30.77 38 27v-3c0-.605 0-1.162-.005-1.675-5.863 1.567-22.127 1.567-27.99 0z" opacity=".6"/>
  <path fill="#000" fill-rule="evenodd" d="M36.828 17.172c.984.983 1.142 3.47 1.167 6.153-2.577.689-7.165 1.075-11.995 1.158V23a1 1 0 00-1-1h-2a1 1 0 00-1 1v1.483c-4.83-.083-9.418-.47-11.995-1.158.025-2.683.183-5.17 1.167-6.153C12.343 16 14.229 16 18 16h12c3.771 0 5.657 0 6.828 1.172z" clip-rule="evenodd"/>
  <rect width="4" height="5" x="22" y="22" fill="#000" opacity=".6" rx="1"/>
  <path fill="#000" fill-rule="evenodd" d="M23 22a1 1 0 00-1 1v.483c1.327.023 2.673.023 4 0V23a1 1 0 00-1-1h-2z" clip-rule="evenodd" opacity=".6"/>
</svg>
